X:98
T:Crook'd Legs. VWMLa.098
%%VWML:Anon2-3049-p56-0
F:http://www.vwml.org/record/Anon2/3049/p56
S:Anon. MS, late 18thC, Vaughan Williams Mem. Library
O:England;Yorkshire
Z:vmp/efdss.Simon Wilson. Reviewed PJH 2008.
M:6/8
L:1/8
Q:3/8=120
K:G
g2f e2d|efg d3|c2B A2G|ABG FED|\
g2f e2d|efg d2c|BGB AFA|G3 G3:|
|:B2c ded|e2d c2B|A2B cdc|d2c B2A|\
G2A BAB|c2B A2G|
FAG FED|FAG FED|\
dBg ecg|dBg ecg|BGB AFA|G3 G3:|
T:Horse and Away to New Market. VWMLa.099
R:jig
S:Anon. MS, late 18thC, Vaughan Williams Mem. Library
N:The A music had a leading f note. PJH.
O:England;Yorkshire
Z:vmp/efdss.Simon Wilson. Reviewed PJH 2008.
M:6/4
L:1/4
Q:3/4=120
K:A
e2A c>BA|BcB d2f|e2A c>Bc|Aae cde|\
fef aec|BcB d2f|e2A c2B|Aae c2A:|
|:Aae c/d/ec|Bbf d2B|Aae c/d/ec|Aae c>de|\
fef a>Ac|BcB d2f|e2d c2B|Aae c2A:|
